src/icons/pencil.svg

<svg viewBox="0 0 20 20" fill="none" xmlns="http://www.w3.org/2000/svg">
  <path
    d="M16.8246 5.12346L17.9121 4.04114C18.4509 3.49998 18.4709 2.90871 17.982 2.40763L17.5929 2.00678C17.104 1.51572 16.4954 1.56583 15.9666 2.09697L14.8791 3.16927L16.8246 5.12346ZM4.60249 17.3797L15.8668 6.06547L13.9312 4.13133L2.66691 15.4255L1.68914 17.7906C1.57939 18.0912 1.88868 18.422 2.188 18.3117L4.60249 17.3797Z"
    fill="currentColor"/>
</svg>

<svg viewBox="0 0 20 20" fill="none" xmlns="http://www.w3.org/2000/svg"><path d="m16.825 5.123 1.087-1.082c.539-.541.559-1.132.07-1.633l-.39-.401c-.488-.491-1.097-.441-1.625.09l-1.088 1.072 1.946 1.954zM4.602 17.38 15.867 6.065 13.93 4.131 2.667 15.425l-.978 2.366c-.11.3.2.631.499.52l2.414-.931z" fill="currentColor"/></svg>
